X: 1
T:Donnybrook Fair  "a.k.a. 'The Joy of Life' or 'Humours of Donnybrook'"
M:6/8
L:1/8
Q:80
C:arr. Kent Hiestand
S:Jig
K:HP
|: B|
{g}A{d}A{e}A{g}BAB|
{g}cf{e}f{gef}ecB|
{g}c{d}c{e}c{g}ABc|  !
{g}BAG{gGd}G2B|
{g}A{d}A{e}A{g}BAB|
{g}cf{e}f{gef}ecB|  !
{g}c{d}c{e}c{g}ABc|
{g}BAG{gAGAG}A2:| |:
g|  !
agf{gf}gfe|
{g}faf{g}ecB|
{g}cf{e}f{gef}ecB|  !
{g}cf{e}f{gfg}f2g|
a{g}a{g}a{gf}gfe|
{g}faf{g}ecB|  !
{g}c{d}c{e}c{g}ABc|
{g}BAG{gAGAG}A2:|
